public/assets/footer/instagram-dark.svg

<svg fill="none" height="36" viewBox="0 0 37 36" width="37" xmlns="http://www.w3.org/2000/svg"><g stroke="#fff" stroke-width="1.286"><path d="m18.8138 23.4666c1.3639 0 2.672-.5418 3.6365-1.5063s1.5063-2.2726 1.5063-3.6365c0-1.364-.5418-2.6721-1.5063-3.6366s-2.2726-1.5063-3.6365-1.5063c-1.364 0-2.6721.5418-3.6366 1.5063s-1.5063 2.2726-1.5063 3.6366c0 1.3639.5418 2.672 1.5063 3.6365s2.2726 1.5063 3.6366 1.5063z" stroke-linecap="round" stroke-linejoin="round"/><path d="m7.24268 23.4666v-10.2857c0-1.705.67729-3.3401 1.88288-4.5457 1.20554-1.20559 2.84074-1.88288 4.54564-1.88288h10.2857c1.705 0 3.3401.67729 4.5457 1.88288 1.2056 1.2056 1.8829 2.8407 1.8829 4.5457v10.2857c0 1.705-.6773 3.3401-1.8829 4.5457s-2.8407 1.8829-4.5457 1.8829h-10.2857c-1.7049 0-3.3401-.6773-4.54564-1.8829-1.20559-1.2056-1.88288-2.8407-1.88288-4.5457z"/><path d="m25.8853 11.2658.0133-.0148" stroke-linecap="round" stroke-linejoin="round"/></g></svg>

<svg xmlns="http://www.w3.org/2000/svg" width="37" height="36" fill="none" viewBox="0 0 37 36"><path stroke="#fff" stroke-linecap="round" stroke-linejoin="round" stroke-width="1.286" d="M18.8138 23.4666C20.1777 23.4666 21.4858 22.9248 22.4503 21.9603C23.4148 20.9958 23.9566 19.6877 23.9566 18.3238C23.9566 16.9598 23.4148 15.6517 22.4503 14.6872C21.4858 13.7227 20.1777 13.1809 18.8138 13.1809C17.4498 13.1809 16.1417 13.7227 15.1772 14.6872C14.2127 15.6517 13.6709 16.9598 13.6709 18.3238C13.6709 19.6877 14.2127 20.9958 15.1772 21.9603C16.1417 22.9248 17.4498 23.4666 18.8138 23.4666Z"/><path stroke="#fff" stroke-width="1.286" d="M7.24268 23.4666V13.1809C7.24268 11.4759 7.91997 9.8408 9.12556 8.6352C10.3311 7.42961 11.9663 6.75232 13.6712 6.75232H23.9569C25.6619 6.75232 27.297 7.42961 28.5026 8.6352C29.7082 9.8408 30.3855 11.4759 30.3855 13.1809V23.4666C30.3855 25.1716 29.7082 26.8067 28.5026 28.0123C27.297 29.2179 25.6619 29.8952 23.9569 29.8952H13.6712C11.9663 29.8952 10.3311 29.2179 9.12556 28.0123C7.91997 26.8067 7.24268 25.1716 7.24268 23.4666Z"/><path stroke="#fff" stroke-linecap="round" stroke-linejoin="round" stroke-width="1.286" d="M25.8853 11.2658L25.8986 11.251"/></svg>
